;FLAVOR:Marlin
;TIME:841
;Filament used: 1.88068m
;Layer height: 0.2
;MINX:178.108
;MINY:182.666
;MINZ:0.2
;MAXX:251.889
;MAXY:247.333
;MAXZ:6.4
;TARGET_MACHINE.NAME:ELEGOO NEPTUNE 4 Max
;Generated with Cura_SteamEngine 5.9.1
M82 ;absolute extrusion mode
;ELEGOO NEPTUNE 4 MAX
M220 S100 ;Set the feed speed to 100%
M221 S100 ;Set the flow rate to 100%
M104 S140 ;Start heating extruder
M190 S60 ;Wait for the bed to reach print temp
G90
G28 ;home
G1 Z10 F300
G1 X165 Y0 F6000
G1 Z0 F300
M109 S210 ;Wait for extruder to reach print temp
G92 E0 ;Reset Extruder
G1 X165 Y0 Z0.4 F300 ;Move to start position
G1 X265 E30 F400 ;Draw the first line
G1 Z0.6 F120.0 ;Move to side a little
G1 X260 F3000
G92 E0 ;Reset Extruder
G92 E0
G92 E0
G1 F2700 E-0.5
;LAYER_COUNT:32
;LAYER:0
M107
M204 S500
G0 F7200 X221.061 Y247.222 Z0.2
;TYPE:SKIRT
G1 F2700 E0
G1 F3600 X219.764 Y247.305 E0.05673
G1 X218.992 Y247.323 E0.09044
G1 X217.869 Y247.333 E0.13947
G1 X216.836 Y247.298 E0.18459
G1 X215.996 Y247.252 E0.22131
G1 X214.932 Y247.165 E0.26792
G1 X214.103 Y247.07 E0.30434
G1 X213.087 Y246.925 E0.34915
G1 X211.623 Y246.657 E0.41412
G1 X210.42 Y246.382 E0.46799
G1 X209.471 Y246.124 E0.51092
G1 X208.255 Y245.745 E0.56652
G1 X207.412 Y245.442 E0.60563
G1 X206.774 Y245.194 E0.63551
G1 X206.129 Y244.917 E0.66615
G1 X205.277 Y244.518 E0.70722
G1 X204.64 Y244.186 E0.73858
G1 X203.992 Y243.823 E0.771
G1 X203.249 Y243.363 E0.80915
G1 X202.446 Y242.81 E0.85171
G1 X201.797 Y242.312 E0.88742
G1 X201.012 Y241.628 E0.93287
G1 X200.143 Y240.755 E0.98665
G1 X199.492 Y239.997 E1.03027
G1 X198.875 Y239.162 E1.07559
G1 X198.326 Y238.288 E1.12064
G1 X197.709 Y237.066 E1.1804
G1 X197.254 Y235.89 E1.23545
G1 X196.918 Y234.69 E1.28985
G1 X196.691 Y233.464 E1.34428
G1 X196.617 Y232.794 E1.3737
G1 X196.564 Y231.579 E1.42679
G1 X196.585 Y230.715 E1.46452
G1 X196.642 Y229.954 E1.49784
G1 X196.827 Y228.621 E1.55658
G1 X197.041 Y227.565 E1.60362
G1 X197.297 Y226.554 E1.64915
G1 X197.655 Y225.37 E1.70314
G1 X197.909 Y224.631 E1.73726
G1 X198.254 Y223.697 E1.78072
G1 X198.619 Y222.79 E1.8234
G1 X198.974 Y221.944 E1.86345
G1 X200.001 Y219.589 E1.97561
G1 X197.552 Y219.045 E2.08512
G1 X196.412 Y218.771 E2.13631
G1 X195.543 Y218.54 E2.17556
G1 X194.283 Y218.176 E2.23281
G1 X193.138 Y217.801 E2.28541
G1 X192.291 Y217.488 E2.32483
G1 X191.183 Y217.033 E2.37711
G1 X190.38 Y216.666 E2.41566
G1 X189.796 Y216.383 E2.44399
G1 X189.199 Y216.068 E2.47345
G1 X188.598 Y215.73 E2.50355
G1 X187.862 Y215.282 E2.54117
G1 X187.247 Y214.875 E2.57336
G1 X186.234 Y214.138 E2.62805
G1 X185.615 Y213.639 E2.66275
G1 X185.08 Y213.178 E2.69358
G1 X184.397 Y212.546 E2.73421
G1 X183.882 Y212.026 E2.76615
G1 X183.398 Y211.504 E2.79723
G1 X182.95 Y210.986 E2.82713
G1 X182.508 Y210.44 E2.85779
G1 X181.951 Y209.689 E2.89861
G1 X181.54 Y209.084 E2.93054
G1 X181.144 Y208.461 E2.96276
G1 X180.791 Y207.854 E2.99342
G1 X180.342 Y207.016 E3.03492
G1 X180.05 Y206.412 E3.06421
G1 X179.777 Y205.799 E3.0935
G1 X179.491 Y205.094 E3.12671
G1 X179.182 Y204.234 E3.1666
G1 X178.982 Y203.609 E3.19525
G1 X178.787 Y202.909 E3.22697
G1 X178.639 Y202.313 E3.25378
G1 X178.431 Y201.295 E3.29914
G1 X178.316 Y200.596 E3.33006
G1 X178.228 Y199.891 E3.36108
G1 X178.167 Y199.185 E3.39201
G1 X178.116 Y198.242 E3.43324
G1 X178.108 Y197.516 E3.46493
G1 X178.13 Y196.779 E3.49712
G1 X178.197 Y195.819 E3.53913
G1 X178.258 Y195.29 E3.56237
G1 X178.437 Y194.198 E3.61068
G1 X178.65 Y193.246 E3.65327
G1 X178.991 Y192.062 E3.70705
G1 X179.311 Y191.205 E3.74699
G1 X179.803 Y190.112 E3.79931
G1 X180.301 Y189.193 E3.84494
G1 X181.381 Y187.647 E3.92727
G1 X182.393 Y186.522 E3.99333
G1 X183.33 Y185.686 E4.04814
G1 X185.284 Y184.386 E4.1506
G1 X186.441 Y183.832 E4.20659
G1 X188.246 Y183.218 E4.28982
G1 X189.264 Y182.983 E4.33543
G1 X190.332 Y182.813 E4.38264
G1 X191.491 Y182.697 E4.43349
G1 X192.286 Y182.666 E4.46822
G1 X193.503 Y182.685 E4.52135
G1 X194.278 Y182.727 E4.55524
G1 X195.265 Y182.824 E4.59853
G1 X196.582 Y183.012 E4.6566
G1 X197.803 Y183.237 E4.7108
G1 X198.46 Y183.378 E4.74014
G1 X199.58 Y183.647 E4.79042
G1 X200.693 Y183.947 E4.84074
G1 X202.042 Y184.346 E4.90215
G1 X203.093 Y184.686 E4.95037
G1 X204.122 Y185.035 E4.99781
G1 X205.635 Y185.57 E5.06786
G1 X210.521 Y187.388 E5.29544
G1 X211.539 Y187.759 E5.34274
G1 X213.262 Y188.344 E5.42217
G1 X214.561 Y188.745 E5.48152
G1 X215.753 Y189.041 E5.53514
G1 X216.385 Y189.174 E5.56333
G1 X217.135 Y189.277 E5.59638
G1 X217.815 Y189.316 E5.62611
G1 X218.439 Y189.25 E5.6535
G1 X219.086 Y189.013 E5.68358
G1 X219.595 Y188.721 E5.7092
G1 X220.153 Y188.355 E5.73833
G1 X221.171 Y187.664 E5.79204
G1 X221.756 Y187.281 E5.82256
G1 X222.392 Y186.893 E5.85509
G1 X223.249 Y186.42 E5.89782
G1 X224.043 Y186.044 E5.93617
G1 X225.703 Y185.438 E6.01331
G1 X226.516 Y185.223 E6.05002
G1 X228.359 Y184.948 E6.13137
G1 X229.537 Y184.889 E6.18286
G1 X230.278 Y184.909 E6.21522
G1 X231.453 Y185.008 E6.26669
G1 X232.251 Y185.125 E6.3019
G1 X233.657 Y185.414 E6.36456
G1 X234.799 Y185.74 E6.4164
G1 X235.805 Y186.079 E6.46275
G1 X237.218 Y186.647 E6.52923
G1 X238.369 Y187.198 E6.58493
G1 X239.417 Y187.757 E6.63678
G1 X240.212 Y188.218 E6.6769
G1 X241.431 Y188.988 E6.73984
G1 X242.569 Y189.804 E6.80097
G1 X243.535 Y190.559 E6.85449
G1 X244.364 Y191.261 E6.90192
G1 X245.284 Y192.107 E6.95648
G1 X246.21 Y193.036 E7.01374
G1 X247.153 Y194.099 E7.07577
G1 X247.923 Y195.049 E7.12915
G1 X248.966 Y196.543 E7.20869
G1 X249.466 Y197.368 E7.2508
G1 X249.798 Y197.96 E7.28043
G1 X250.157 Y198.663 E7.31489
G1 X250.507 Y199.428 E7.35162
G1 X250.764 Y200.05 E7.381
G1 X251.082 Y200.942 E7.42234
G1 X251.339 Y201.785 E7.46081
G1 X251.521 Y202.518 E7.49378
G1 X251.717 Y203.562 E7.54015
G1 X251.809 Y204.269 E7.57127
G1 X251.889 Y205.753 E7.63615
G1 X251.859 Y206.839 E7.68357
G1 X251.775 Y207.706 E7.7216
G1 X251.568 Y208.904 E7.77467
G1 X251.354 Y209.774 E7.81378
G1 X250.876 Y211.218 E7.88018
G1 X250.454 Y212.2 E7.92684
G1 X249.841 Y213.386 E7.98512
G1 X249.485 Y213.981 E8.01539
G1 X248.856 Y214.924 E8.06487
G1 X248.375 Y215.579 E8.10035
G1 X247.951 Y216.12 E8.13035
G1 X247.376 Y216.814 E8.1697
G1 X245.474 Y218.981 E8.29557
G1 X245.057 Y219.49 E8.32429
G1 X244.742 Y219.966 E8.34921
G1 X244.575 Y220.28 E8.36473
G1 X244.447 Y220.802 E8.3882
G1 X244.429 Y221.445 E8.41628
G1 X244.483 Y222.378 E8.45707
G1 X244.657 Y224.544 E8.55193
G1 X244.714 Y225.771 E8.60555
G1 X244.716 Y226.528 E8.6386
G1 X244.681 Y227.359 E8.67491
G1 X244.567 Y228.493 E8.72466
G1 X244.45 Y229.236 E8.7575
G1 X244.306 Y229.931 E8.78848
G1 X243.945 Y231.253 E8.8483
G1 X243.697 Y231.965 E8.88122
G1 X243.269 Y232.987 E8.92958
G1 X242.825 Y233.895 E8.97371
G1 X242.324 Y234.77 E9.01772
G1 X241.902 Y235.436 E9.05214
G1 X241.453 Y236.083 E9.08652
G1 X240.991 Y236.701 E9.1202
G1 X240.416 Y237.414 E9.16019
G1 X239.678 Y238.247 E9.20877
G1 X239.171 Y238.783 E9.24098
G1 X238.516 Y239.432 E9.28123
G1 X237.551 Y240.314 E9.3383
G1 X236.736 Y240.997 E9.38472
G1 X235.972 Y241.597 E9.42713
G1 X235.219 Y242.148 E9.46786
G1 X234.634 Y242.554 E9.49895
G1 X234.023 Y242.951 E9.53075
G1 X233.164 Y243.475 E9.57468
G1 X232.288 Y243.967 E9.61854
G1 X231.406 Y244.422 E9.66186
G1 X230.717 Y244.748 E9.69514
G1 X229.745 Y245.17 E9.7414
G1 X228.771 Y245.549 E9.78702
G1 X227.789 Y245.889 E9.83238
G1 X226.816 Y246.186 E9.87679
G1 X226.035 Y246.395 E9.91209
G1 X225.049 Y246.625 E9.95629
G1 X224.224 Y246.793 E9.99304
G1 X223.176 Y246.972 E10.03945
G1 X222.142 Y247.111 E10.085
G1 X221.061 Y247.222 E10.13243
G1 F2700 E9.63243
G0 F7200 X222.088 Y246.589
G1 F2700 E10.13243
G1 F3600 X221.027 Y246.698 E10.17899
G1 X219.751 Y246.78 E10.23481
G1 X218.984 Y246.799 E10.26831
G1 X217.886 Y246.808 E10.31624
G1 X216.865 Y246.774 E10.36083
G1 X216.039 Y246.729 E10.39695
G1 X214.992 Y246.643 E10.44281
G1 X214.177 Y246.55 E10.47861
G1 X213.182 Y246.409 E10.52248
G1 X211.74 Y246.145 E10.58648
G1 X210.558 Y245.875 E10.63941
G1 X209.609 Y245.617 E10.68234
G1 X208.432 Y245.251 E10.73615
G1 X207.602 Y244.953 E10.77464
G1 X206.981 Y244.712 E10.80372
G1 X206.352 Y244.442 E10.8336
G1 X205.519 Y244.052 E10.87375
G1 X204.896 Y243.728 E10.90441
G1 X204.268 Y243.377 E10.93582
G1 X203.547 Y242.931 E10.97283
G1 X202.766 Y242.393 E11.01423
G1 X202.117 Y241.895 E11.04994
G1 X201.384 Y241.257 E11.09236
G1 X200.541 Y240.412 E11.14446
G1 X199.914 Y239.684 E11.18641
G1 X199.32 Y238.883 E11.22994
G1 X198.771 Y238.009 E11.27499
G1 X198.198 Y236.876 E11.33042
G1 X197.76 Y235.748 E11.38324
G1 X197.424 Y234.548 E11.43764
G1 X197.213 Y233.406 E11.48834
G1 X197.142 Y232.771 E11.51623
G1 X197.089 Y231.556 E11.56932
G1 X197.109 Y230.754 E11.60434
G1 X197.166 Y229.993 E11.63766
G1 X197.347 Y228.693 E11.69495
G1 X197.55 Y227.694 E11.73946
G1 X197.806 Y226.683 E11.78498
G1 X198.152 Y225.54 E11.83711
G1 X198.401 Y224.813 E11.87066
G1 X198.741 Y223.893 E11.91348
G1 X199.103 Y222.993 E11.95583
G1 X199.455 Y222.154 E11.99554
G1 X200.335 Y220.136 E12.09165
G1 X200.718 Y219.211 E12.13535
G1 X197.674 Y218.534 E12.27148
G1 X196.547 Y218.264 E12.32207
G1 X195.689 Y218.036 E12.36083
G1 X194.446 Y217.677 E12.41731
G1 X193.32 Y217.309 E12.46902
G1 X192.49 Y217.002 E12.50765
G1 X191.402 Y216.556 E12.55898
G1 X190.609 Y216.193 E12.59706
G1 X190.041 Y215.918 E12.6246
G1 X189.456 Y215.61 E12.65346
G1 X188.871 Y215.281 E12.68276
G1 X188.152 Y214.844 E12.71949
G1 X187.556 Y214.45 E12.75068
G1 X186.543 Y213.713 E12.80537
G1 X185.957 Y213.241 E12.83822
G1 X185.436 Y212.793 E12.86821
G1 X184.77 Y212.177 E12.90782
G1 X184.267 Y211.669 E12.93902
G1 X183.795 Y211.16 E12.96933
G1 X183.358 Y210.655 E12.99848
G1 X182.93 Y210.127 E13.02815
G1 X182.373 Y209.376 E13.06897
G1 X181.983 Y208.802 E13.09926
G1 X181.598 Y208.197 E13.13057
G1 X181.254 Y207.606 E13.16042
G1 X180.815 Y206.787 E13.20098
G1 X180.53 Y206.198 E13.22955
G1 X180.257 Y205.585 E13.25884
G1 X179.985 Y204.916 E13.29037
G1 X179.682 Y204.074 E13.32943
G1 X179.488 Y203.468 E13.35721
G1 X179.297 Y202.782 E13.38829
G1 X179.149 Y202.186 E13.4151
G1 X178.949 Y201.21 E13.45859
G1 X178.837 Y200.531 E13.48863
G1 X178.751 Y199.845 E13.51882
G1 X178.691 Y199.157 E13.54896
G1 X178.641 Y198.236 E13.58923
G1 X178.633 Y197.531 E13.62001
G1 X178.654 Y196.815 E13.65128
G1 X178.719 Y195.879 E13.69223
G1 X178.78 Y195.35 E13.71548
G1 X178.955 Y194.283 E13.76268
G1 X179.155 Y193.391 E13.80259
G1 X179.483 Y192.246 E13.85458
G1 X179.803 Y191.389 E13.89452
G1 X180.265 Y190.362 E13.94368
G1 X180.763 Y189.443 E13.98931
G1 X181.811 Y187.948 E14.06901
G1 X182.743 Y186.914 E14.12977
G1 X183.68 Y186.078 E14.18459
G1 X185.511 Y184.86 E14.28059
G1 X186.668 Y184.306 E14.33659
G1 X188.364 Y183.73 E14.41478
G1 X189.382 Y183.495 E14.46039
G1 X190.384 Y183.335 E14.50468
G1 X191.511 Y183.222 E14.55413
G1 X192.306 Y183.191 E14.58886
G1 X193.475 Y183.209 E14.6399
G1 X194.227 Y183.249 E14.67277
G1 X195.191 Y183.344 E14.71506
G1 X196.487 Y183.528 E14.7722
G1 X197.693 Y183.75 E14.82573
G1 X198.337 Y183.888 E14.85448
G1 X199.444 Y184.154 E14.90418
G1 X200.544 Y184.45 E14.95391
G1 X201.88 Y184.845 E15.01473
G1 X202.924 Y185.183 E15.06263
G1 X203.947 Y185.53 E15.10979
G1 X205.452 Y186.062 E15.17947
G1 X210.341 Y187.881 E15.40719
G1 X211.37 Y188.256 E15.455
G1 X213.107 Y188.846 E15.53508
G1 X214.141 Y189.165 E15.58232
G1 X214.624 Y189.302 E15.60424
G1 X215.626 Y189.551 E15.64931
G1 X216.291 Y189.691 E15.67897
G1 X217.083 Y189.8 E15.71387
G1 X217.829 Y189.843 E15.74649
G1 X218.56 Y189.765 E15.77859
G1 X219.31 Y189.49 E15.81346
G1 X219.865 Y189.172 E15.84138
G1 X220.441 Y188.794 E15.87146
G1 X221.459 Y188.103 E15.92517
G1 X222.03 Y187.729 E15.95496
G1 X222.646 Y187.353 E15.98647
G1 X223.503 Y186.88 E16.0292
G1 X224.267 Y186.519 E16.06609
G1 X225.837 Y185.946 E16.13905
G1 X226.65 Y185.731 E16.17576
G1 X228.386 Y185.472 E16.25238
G1 X229.523 Y185.414 E16.30208
G1 X230.264 Y185.434 E16.33444
G1 X231.409 Y185.531 E16.3846
G1 X232.146 Y185.639 E16.41712
G1 X233.513 Y185.919 E16.47803
G1 X234.631 Y186.238 E16.52878
G1 X235.637 Y186.577 E16.57513
G1 X237.022 Y187.134 E16.64029
G1 X238.122 Y187.661 E16.69354
G1 X239.154 Y188.211 E16.74459
G1 X239.932 Y188.662 E16.78384
G1 X241.151 Y189.432 E16.84679
G1 X242.246 Y190.218 E16.90563
G1 X243.196 Y190.96 E16.95825
G1 X244.009 Y191.648 E17.00474
G1 X244.912 Y192.478 E17.05828
G1 X245.817 Y193.385 E17.11422
G1 X246.745 Y194.43 E17.17523
G1 X247.515 Y195.38 E17.22861
G1 X248.517 Y196.815 E17.30501
G1 X249.008 Y197.625 E17.34636
G1 X249.33 Y198.199 E17.37509
G1 X249.689 Y198.902 E17.40955
G1 X250.022 Y199.629 E17.44446
G1 X250.269 Y200.226 E17.47266
G1 X250.587 Y201.118 E17.514
G1 X250.829 Y201.912 E17.55024
G1 X251.011 Y202.645 E17.58321
G1 X251.196 Y203.63 E17.62696
G1 X251.288 Y204.337 E17.65808
G1 X251.364 Y205.739 E17.71937
G1 X251.336 Y206.788 E17.76518
G1 X251.252 Y207.655 E17.80321
G1 X251.058 Y208.779 E17.853
G1 X250.844 Y209.649 E17.89211
G1 X250.393 Y211.011 E17.95474
G1 X249.987 Y211.959 E17.99976
G1 X249.39 Y213.116 E18.0566
G1 X249.034 Y213.711 E18.08687
G1 X248.433 Y214.613 E18.13418
G1 X247.962 Y215.255 E18.16894
G1 X247.546 Y215.785 E18.19835
G1 X246.981 Y216.468 E18.23705
G1 X245.079 Y218.635 E18.36292
G1 X244.636 Y219.175 E18.39341
G1 X244.291 Y219.697 E18.42072
G1 X244.08 Y220.092 E18.44027
G1 X243.923 Y220.732 E18.46904
G1 X243.904 Y221.449 E18.50035
G1 X243.96 Y222.42 E18.54281
G1 X244.133 Y224.568 E18.63688
G1 X244.189 Y225.772 E18.68949
G1 X244.191 Y226.506 E18.72154
G1 X244.156 Y227.337 E18.75785
G1 X244.048 Y228.411 E18.80497
G1 X243.931 Y229.154 E18.8378
G1 X243.792 Y229.824 E18.86767
G1 X243.449 Y231.08 E18.92451
G1 X243.201 Y231.792 E18.95742
G1 X242.797 Y232.757 E19.00309
G1 X242.369 Y233.634 E19.04569
G1 X241.868 Y234.509 E19.08971
G1 X241.47 Y235.137 E19.12216
G1 X241.032 Y235.769 E19.15573
G1 X240.582 Y236.371 E19.18854
G1 X240.007 Y237.084 E19.22853
G1 X239.296 Y237.887 E19.27535
G1 X238.802 Y238.41 E19.30675
G1 X238.162 Y239.044 E19.34608
G1 X237.197 Y239.926 E19.40315
G1 X236.412 Y240.584 E19.44786
G1 X235.662 Y241.173 E19.48949
G1 X234.919 Y241.717 E19.52969
G1 X234.348 Y242.114 E19.56005
G1 X233.749 Y242.503 E19.59123
G1 X232.907 Y243.017 E19.63429
G1 X232.047 Y243.5 E19.67735
G1 X231.181 Y243.947 E19.7199
G1 X230.492 Y244.273 E19.75317
G1 X229.554 Y244.681 E19.79782
G1 X228.599 Y245.053 E19.84256
G1 X227.635 Y245.387 E19.8871
G1 X226.68 Y245.679 E19.9307
G1 X225.915 Y245.884 E19.96527
G1 X224.944 Y246.111 E20.0088
G1 X224.135 Y246.276 E20.04484
G1 X223.106 Y246.452 E20.09042
G1 X222.088 Y246.589 E20.13526
G0 F7200 X222.034 Y246.067
G1 F3600 X220.993 Y246.174 E20.18094
G1 X219.738 Y246.255 E20.23584
G1 X218.98 Y246.274 E20.26894
G1 X217.903 Y246.283 E20.31596
G1 X216.893 Y246.25 E20.36007
G1 X216.082 Y246.206 E20.39553
G1 X215.051 Y246.121 E20.44069
G1 X214.251 Y246.03 E20.47583
G1 X213.256 Y245.889 E20.5197
G1 X211.857 Y245.633 E20.58179
G1 X210.695 Y245.368 E20.63382
G1 X209.765 Y245.116 E20.67588
G1 X208.609 Y244.757 E20.72872
G1 X207.792 Y244.464 E20.76661
G1 X207.188 Y244.229 E20.7949
G1 X206.574 Y243.966 E20.82406
G1 X205.761 Y243.586 E20.86324
G1 X205.152 Y243.269 E20.89321
G1 X204.544 Y242.93 E20.9236
G1 X203.845 Y242.498 E20.95947
G1 X203.086 Y241.976 E20.99968
G1 X202.437 Y241.478 E21.03539
G1 X201.755 Y240.886 E21.07482
G1 X200.938 Y240.069 E21.12525
G1 X200.335 Y239.371 E21.16552
G1 X199.765 Y238.604 E21.20724
G1 X199.216 Y237.73 E21.25229
G1 X198.687 Y236.685 E21.30342
G1 X198.266 Y235.606 E21.35398
G1 X197.93 Y234.406 E21.40838
G1 X197.735 Y233.347 E21.45539
G1 X197.667 Y232.748 E21.48171
G1 X197.614 Y231.533 E21.5348
G1 X197.633 Y230.793 E21.56711
G1 X197.69 Y230.032 E21.60043
G1 X197.867 Y228.766 E21.65623
G1 X198.059 Y227.823 E21.69824
G1 X198.315 Y226.812 E21.74377
G1 X198.649 Y225.71 E21.79403
G1 X198.893 Y224.995 E21.82701
G1 X199.228 Y224.089 E21.86918
G1 X199.587 Y223.196 E21.9112
G1 X199.936 Y222.364 E21.95058
G1 X200.816 Y220.346 E22.04669
G1 X201.428 Y218.868 E22.11652
G1 X200.72 Y218.674 E22.14857
G1 X197.796 Y218.023 E22.27934
G1 X196.669 Y217.753 E22.32993
G1 X195.835 Y217.532 E22.36759
G1 X194.609 Y217.178 E22.4233
G1 X193.502 Y216.816 E22.47414
